packages/icons/svg/Universe_Carpentry_64px.svg

<svg xmlns="http://www.w3.org/2000/svg" viewBox="0 0 64 64"><path d="M57 35.33h-6.5v-7.66a2 2 0 00-2-2H42V18a2 2 0 00-2-2H24a2 2 0 00-2 2v7.67h-6.5a2 2 0 00-2 2v7.66H7a2 2 0 00-2 2V46a2 2 0 002 2h50a2 2 0 002-2v-8.66a2 2 0 00-2-2.01zm-9.5-6.66v6.66h-14v-6.66h14zM25 19h14v6.67H25zm-8.5 9.67h14v6.66h-14zM22 45H8v-6.67h14zm17 0H25v-6.67h14zm17 0H42v-6.67h14z"/></svg>

<svg xmlns="http://www.w3.org/2000/svg" viewBox="0 0 64 64"><defs></defs><g id="Icon"><path  d="M57,35.33H50.5V27.67a2,2,0,0,0-2-2H42V18a2,2,0,0,0-2-2H24a2,2,0,0,0-2,2v7.67H15.5a2,2,0,0,0-2,2v7.66H7a2,2,0,0,0-2,2V46a2,2,0,0,0,2,2H57a2,2,0,0,0,2-2V37.34A2,2,0,0,0,57,35.33Zm-9.5-6.66v6.66h-14V28.67h14ZM25,19H39v6.67H25Zm-8.5,9.67h14v6.66h-14ZM22,45H8V38.33H22Zm17,0H25V38.33H39Zm17,0H42V38.33H56Z"/></g></svg>
